icons/fill-new-office-doc-document-add.svg

<svg xmlns="http://www.w3.org/2000/svg" width="32px" height="32px" viewBox="0 0 32 32" version="1.1">
    <title>fill-new-office-doc-document-add</title>
    <g id="fill-new-office-doc-document-add" stroke-width="1" fill-rule="evenodd">
        <path d="M18,2 L18,11 C18,11.5522847 18.4477153,12 19,12 L28,12 L28,29 C28,29.5522847 27.5522847,30 27,30 L5,30 C4.44771525,30 4,29.5522847 4,29 L4,3 C4,2.44771525 4.44771525,2 5,2 L18,2 Z M16,14 C15.4477153,14 15,14.4477153 15,15 L15,18 L12,18 C11.4871642,18 11.0644928,18.3860402 11.0067277,18.8833789 L11,19 C11,19.5522847 11.4477153,20 12,20 L15,20 L15,23 C15,23.5128358 15.3860402,23.9355072 15.8833789,23.9932723 L16,24 C16.5522847,24 17,23.5522847 17,23 L17,20 L20,20 C20.5128358,20 20.9355072,19.6139598 20.9932723,19.1166211 L21,19 C21,18.4477153 20.5522847,18 20,18 L17,18 L17,15 C17,14.4871642 16.6139598,14.0644928 16.1166211,14.0067277 L16,14 Z M20.0010929,2.09031818 C20.1086568,2.13942374 20.2076737,2.2076737 20.2928932,2.29289322 L27.7071068,9.70710678 C27.7925934,9.79259345 27.861004,9.89196417 27.9101431,9.99991892 L20,10 L20.0010929,2.09031818 Z" id="&#24418;&#29366;" />
    </g>
</svg>

<svg xmlns="http://www.w3.org/2000/svg" viewBox="0 0 32 32"><path fill="currentColor" d="M18 2v9a1 1 0 0 0 1 1h9v17a1 1 0 0 1-1 1H5a1 1 0 0 1-1-1V3a1 1 0 0 1 1-1zm-2 12a1 1 0 0 0-1 1v3h-3a1 1 0 0 0-.993.883L11 19a1 1 0 0 0 1 1h3v3a1 1 0 0 0 .883.993L16 24a1 1 0 0 0 1-1v-3h3a1 1 0 0 0 .993-.883L21 19a1 1 0 0 0-1-1h-3v-3a1 1 0 0 0-.883-.993zm4.001-11.91a1 1 0 0 1 .292.203l7.414 7.414a1 1 0 0 1 .203.293H20z"/></svg>
